X: 051
T: HAMTON COURT FROLICKS
C: J Crask
%R: jig
B: J.Gray's Twenty four Country Dances (for the Year 1812) p.5 #1
S: http://www.eatmt.org.uk/gray_1812.htm 2014-8-7
Z: 2014 John Chambers <jc:trillian.mit.edu>
M: 6/8
L: 1/8
K: Bb
F |\
(FD)B (BF)d | fgf fed | gfe dcB | ABc F(FE) |\
(DB,)F (BF)d | (fg)f fed | (c/d/e)c (A/B/c)A | BBB B2 :|
|: F/E/ |\
(DB,)B GEc | (AF)f (dB)f | gfe dcB | Acf F(FE) |\
(Dd)B (Ee)c | (Ff)d (Eg)e | (ce)c ([A=E]c)A | BBB B2 :|
% - - - - - - - - - - - - - - - - - - - - - - - - -
%%begintext align
%% Hands 3 round with the Lady. D.o with Gent. down mid:
%% up. & allemande.
%%endtext
% - - - - - - - - - - - - - - - - - - - - - - - - -
